build/img/logo.svg

<svg fill="none" height="21" viewBox="0 0 68 21" width="68" xmlns="http://www.w3.org/2000/svg"><g fill="#0ad9c6"><path d="m13.3636 0v20.0455h-3.2931v-14.22277l-1.09777 1.38409-2.14773 2.76818-.09546.0955-.14318-.0955-2.14772-2.76818-1.09773-1.43182v14.2705h-3.34091v-20.0455h3.34091l3.38863 4.29545 3.34096-4.29545z"/><path d="m8.30444 10.0705-.09546-.09549z"/><path d="m8.44787 9.97501-.09546.09549h-.04772z"/><path d="m38.209 5.61453-9.127 6.70147 2.1132 2.878 9.127-6.70148z"/><path d="m26.6672 3c-3.864 0-7.0432 3.13028-7.0432 7.0431 0 3.864 3.1303 7.0432 7.0432 7.0432 3.8639 0 7.0431-3.1303 7.0431-7.0432 0-3.86391-3.1792-7.0431-7.0431-7.0431zm0 10.2712c-1.8097 0-3.2281-1.4673-3.2281-3.2281 0-1.80966 1.4673-3.22807 3.2281-3.22807 1.7607 0 3.2281 1.46732 3.2281 3.22807 0 1.7608-1.4674 3.2281-3.2281 3.2281z"/><path d="m43.6393 3c-3.8639 0-7.0431 3.13028-7.0431 7.0431 0 3.864 3.1303 7.0432 7.0431 7.0432 3.864 0 7.0432-3.1303 7.0432-7.0432-.0489-3.86391-3.1792-7.0431-7.0432-7.0431zm0 10.2712c-1.8097 0-3.2281-1.4673-3.2281-3.2281 0-1.80966 1.4673-3.22807 3.2281-3.22807s3.2281 1.46732 3.2281 3.22807c0 1.7608-1.4673 3.2281-3.2281 3.2281z"/><path d="m67.5977.238647v20.045453h-3.3409v-10.40454l-2.8159-2.67273-2.1-2.05227v15.12954h-3.3409v-20.045453h3.2932.0477l3.9136 3.770453 1.0023.95455v-4.725003z"/><path d="m37 3h6v4h-6z"/></g></svg>

<svg width="68" height="21" viewBox="0 0 68 21" fill="none" xmlns="http://www.w3.org/2000/svg">
<path d="M13.3636 0V20.0455H10.0705V5.82273L8.97273 7.20682L6.825 9.975L6.72954 10.0705L6.58636 9.975L4.43864 7.20682L3.34091 5.775V20.0455H0V0H3.34091L6.72954 4.29545L10.0705 0H13.3636Z" fill="#0AD9C6"/>
<path d="M8.30444 10.0705L8.20898 9.97501L8.30444 10.0705Z" fill="#0AD9C6"/>
<path d="M8.44787 9.97501L8.35241 10.0705H8.30469L8.44787 9.97501Z" fill="#0AD9C6"/>
<path d="M38.209 5.61453L29.082 12.316L31.1952 15.194L40.3222 8.49252L38.209 5.61453Z" fill="#0AD9C6"/>
<path d="M26.6672 3C22.8032 3 19.624 6.13028 19.624 10.0431C19.624 13.9071 22.7543 17.0863 26.6672 17.0863C30.5311 17.0863 33.7103 13.956 33.7103 10.0431C33.7103 6.17919 30.5311 3 26.6672 3ZM26.6672 13.2712C24.8575 13.2712 23.4391 11.8039 23.4391 10.0431C23.4391 8.23344 24.9064 6.81503 26.6672 6.81503C28.4279 6.81503 29.8953 8.28235 29.8953 10.0431C29.8953 11.8039 28.4279 13.2712 26.6672 13.2712Z" fill="#0AD9C6"/>
<path d="M43.6393 3C39.7754 3 36.5962 6.13028 36.5962 10.0431C36.5962 13.9071 39.7265 17.0863 43.6393 17.0863C47.5033 17.0863 50.6825 13.956 50.6825 10.0431C50.6336 6.17919 47.5033 3 43.6393 3ZM43.6393 13.2712C41.8296 13.2712 40.4112 11.8039 40.4112 10.0431C40.4112 8.23344 41.8785 6.81503 43.6393 6.81503C45.4001 6.81503 46.8674 8.28235 46.8674 10.0431C46.8674 11.8039 45.4001 13.2712 43.6393 13.2712Z" fill="#0AD9C6"/>
<path d="M67.5977 0.238647V20.2841H64.2568V9.87956L61.4409 7.20683L59.3409 5.15456V20.2841H56V0.238647H59.2932H59.3409L63.2545 4.0091L64.2568 4.96365V0.238647H67.5977Z" fill="#0AD9C6"/>
<rect x="37" y="3" width="6" height="4" fill="#0AD9C6"/>
</svg>
